X: 4643
T: Boxiana
R: jig
M: 6/8
K: Gmajor
g2 d B2 d|e2 c gfe|d2 G dcB|BA^G A2 d|
g2 f B2 d|e2 e gfe|d2 d cBA|G3- G2:|
c3 ABc|B2 d G2 B|c3 ABc|B2 d G2 g|
f2 g e2 g|d2 g c2 g|f2 f def|g3 g2:|

